X: 43
T: Denver Schottische
M:4/4
L:1/8
R:Schottische
S: Viola "Mom" Ruth - Pioneer Western Folk Tunes (1948)
Z:AK/Fiddler's Companion
K:C
cBcG ECDE|F2d2 d3e|fdBG AGED|CDEF G2 (AB)|cBcG ECDE|F2d2d3e|
fedc BGAB|c2c2c2 (cd)|e^def gecB|A2a2a3g|edef gage|dcBA G2G2|
e^def gecB|A2a2a3g|c'age fedc|BGAB c4||

%%sep 1 1 500
